v/0.4.11/design-resources/icons/wf_icons/template-master.svg

<?xml version="1.0" encoding="utf-8"?>
<!-- Generated by IcoMoon.io -->
<!DOCTYPE svg PUBLIC "-//W3C//DTD SVG 1.1//EN" "http://www.w3.org/Graphics/SVG/1.1/DTD/svg11.dtd">
<svg version="1.1" xmlns="http://www.w3.org/2000/svg" xmlns:xlink="http://www.w3.org/1999/xlink" width="512" height="512" viewBox="0 0 512 512">
<g>
</g>
	<path d="M383.998 32h-351.998v448h151.999l-4-32h-115.999v-96h104l-4-32h-99.999v-96h128v12l32 40v-52h132l28 56v-248h-0.002zM64 192v-96h128v96h-128zM224 192v-96h128v96h-128z" fill="#595959" />
	<path d="M456 480h-240l-24-192 80 96 64-128 64 128 80-96z" fill="#595959" />
</svg>

<svg xmlns="http://www.w3.org/2000/svg" width="512" height="512" viewBox="0 0 512 512"><path stroke="#449FDB" d="M0 0"/><path d="M383.998 32H32v448h152l-4-32H64v-96h104l-4-32H64v-96h128v12l32 40v-52h132l28 56V32zM64 192V96h128v96H64zm160 0V96h128v96H224zm232 288H216l-24-192 80 96 64-128 64 128 80-96z" fill="#595959"/></svg>
